assets/icons/copy.svg

<svg height="24" width="24" xmlns="http://www.w3.org/2000/svg"><path style="fill:gray;stroke-width:.5;stroke-linecap:round;fill-opacity:1" d="M5 4v14h1V5h10v1H7v14h12V6h-2V4H5zm3 3h10v12H8V7zm2 2v1h6V9h-6zm0 2v1h6v-1h-6zm0 2v1h3v-1h-3z"/></svg>

<?xml version="1.0" encoding="UTF-8" standalone="no"?>
<svg viewBox="0 0 24 24" height="24" width="24" version="1.1" id="svg4" sodipodi:docname="copy.svg" inkscape:version="1.1 (ce6663b3b7, 2021-05-25)"
   xmlns:inkscape="http://www.inkscape.org/namespaces/inkscape"
   xmlns:sodipodi="http://sodipodi.sourceforge.net/DTD/sodipodi-0.dtd"
   xmlns="http://www.w3.org/2000/svg"
   xmlns:svg="http://www.w3.org/2000/svg">
   <defs id="defs8" />
   <sodipodi:namedview id="namedview6" pagecolor="#ffffff" bordercolor="#666666" borderopacity="1.0" inkscape:pageshadow="2" inkscape:pageopacity="0.0" inkscape:pagecheckerboard="0" showgrid="true" inkscape:zoom="28" inkscape:cx="8.2678571" inkscape:cy="12.196429" inkscape:window-width="1920" inkscape:window-height="1016" inkscape:window-x="0" inkscape:window-y="27" inkscape:window-maximized="1" inkscape:current-layer="svg4">
      <inkscape:grid type="xygrid" id="grid825" />
   </sodipodi:namedview>
   <path id="rect844" style="fill:#808080;fill-rule:evenodd;stroke-width:0.5;stroke-linecap:round;fill-opacity:1" d="M 5 4 L 5 18 L 6 18 L 6 17 L 6 6 L 6 5 L 16 5 L 16 6 L 7 6 L 7 20 L 19 20 L 19 6 L 17 6 L 17 4 L 5 4 z M 8 7 L 18 7 L 18 19 L 8 19 L 8 7 z M 10 9 L 10 10 L 16 10 L 16 9 L 10 9 z M 10 11 L 10 12 L 16 12 L 16 11 L 10 11 z M 10 13 L 10 14 L 13 14 L 13 13 L 10 13 z " />
</svg>
